X: 37569
T: Smash The Windows
R: reel
M: 4/4
K: Dmajor
|:AF|D2 FD FAAB|defd ecAF|GE ~E2 FD ~D2|EA,~A,2 DEFE|
D2 FD FAAB|defd ecAg|fd ~d2 ge ~e2|fage d2:|
|:fg|afdf ~g3a|bagb afdf|~g3A (3Bcd ef|gfgb agfe|
faeg fdde|fdaf gfeg|fd(3ddd gece|fage d2:|

